X:1
T:Title
%%score { ( 1 3 ) | ( 2 4 ) }
L:1/8
M:4/4
K:F
V:1 treble nm="Grand Piano"
V:3 treble 
V:2 bass 
V:4 bass 
V:1
 z4 z2[Q:1/4=100] c2 | c2 A>G F2 G>A | F4 C2 C2 | F2 F>G AA F2 |[M:3/4] [Ec]6 |[M:1/4] [Ec]2 | %6
[M:4/4] c2 A>G F2 G>A | [DB]4 [Fd]2 [Fd]2 | [Fc]2 [Fc]>[Fc] [Ec]2 E>G | F6 z2 | %10
 [EG] [EG]2 [EG] [FA]2 [GB]>[GB] | [FA]6 z2 | =B2 B>B B2 [CFA]>[FB] |[M:3/4] [Ec]6 |[M:1/4] [Ec]2 | %15
[M:4/4] c2 A>G F2 [B,EG][_EA] | [B,DB]2 [DFB]>[DFB] [Fd]3 [Fd] | [Fc] [Fc]2 [Fc] [Ec]2 E>G | %18
[M:3/4] F6 |] %19
V:2
 z4 z2 [F,A,F]2 | [F,A,F]2 [F,CF]>[F,B,C] [F,A,C]2 [F,B,C]>[F,C] | [F,A,C]4 [F,A,]2 [F,A,]2 | %3
 [F,A,C]2 [F,A,C]>[F,B,C] [F,CF][F,CF] [D,=B,]2 |[M:3/4] [C,C]6 |[M:1/4] [C,B,]2 | %6
[M:4/4] [F,A,F]2 [F,CF]>[F,B,C] [F,A,C]2 [F,B,E]>[F,C_E] | [B,,B,]4 [B,,B,]2 [B,,B,]2 | %8
 [C,A,]2 [C,A,]>[C,A,] [C,G,]2 [C,B,C]>[C,B,C] | [F,A,C]6 z2 | %10
 [C,C] [C,C]2 [C,C] [C,C]2 [C,C]>[C,C] | [F,C]2 F,>F, F,2[K:treble] [F,A,F]2 | %12
 [G,F]2 [G,DF]>[G,DF] [G,DF]2[K:bass] G,,>[G,,G,] |[M:3/4] [C,G,]2 C,>C, C,2 |[M:1/4] [C,B,]2 | %15
[M:4/4] [F,A,F]2 [F,CF]>[F,B,C] [F,A,C]2 z C | B,,2 B,,>B,, [B,,B,]3 [B,,B,] | %17
 [C,A,] [C,A,]2 [C,A,] [C,G,]2 [C,B,C]>[C,B,C] |[M:3/4] [F,A,C]6 |] %19
V:3
 x8 | x8 | x8 | x8 |[M:3/4] x6 |[M:1/4] x2 |[M:4/4] x8 | x8 | x8 | x8 | x8 | z2 C>C C2 c2 | x8 | %13
[M:3/4] z2 G,>G, G,2 |[M:1/4] x2 |[M:4/4] x8 | x8 | x8 |[M:3/4] x6 |] %19
V:4
 x8 | x8 | x8 | x8 |[M:3/4] x6 |[M:1/4] x2 |[M:4/4] x8 | x8 | x8 | x8 | x8 | x6[K:treble] x2 | %12
 x6[K:bass] x2 |[M:3/4] x6 |[M:1/4] x2 |[M:4/4] z4 z2 F,2 | x8 | x8 |[M:3/4] x6 |] %19

